static/img/52- silicon-chip.svg

<svg viewBox="0 0 100 112" xmlns="http://www.w3.org/2000/svg"><circle cx="50.34" cy="56" fill="#e8f4fa" r="40"/><ellipse cx="51.29" cy="83.76" fill="#191816" opacity=".15" rx="17.25" ry="1.72"/><rect fill="#00dba8" height="40.02" rx="2" width="45.54" x="28.52" y="35.73"/><path d="m28.52 61.68 25.94-25.95h-23.64a2.3 2.3 0 0 0 -2.3 2.3z" fill="#00f5bc"/><g stroke="#191816" stroke-linecap="round" stroke-linejoin="round"><rect fill="none" height="40.02" rx="2" width="45.54" x="28.52" y="35.73"/><rect fill="#00ad85" height="16.56" rx="2" width="16.56" x="51.98" y="42.63"/><path d="m56.12 42.63v-2.76" fill="none"/><path d="m60.26 42.63v-2.76" fill="none"/><path d="m64.4 42.63v-2.76" fill="none"/><path d="m56.12 61.95v-2.76" fill="none"/><path d="m60.26 61.95v-2.76" fill="none"/><path d="m64.4 61.95v-2.76" fill="none"/><path d="m49.22 50.91h2.76" fill="none"/><path d="m49.22 46.77h2.76" fill="none"/><path d="m68.54 46.77h2.76" fill="none"/><path d="m49.22 55.05h2.76" fill="none"/><path d="m68.54 50.91h2.76" fill="none"/><path d="m68.54 55.05h2.76" fill="none"/><rect fill="#ffe500" height="19.32" rx="1" width="2.76" x="32.66" y="39.87"/><rect fill="#ffe500" height="19.32" rx="1" width="2.76" x="39.56" y="39.87"/><rect fill="#00f5bc" height="11.04" rx="1" width="11.04" x="54.74" y="45.39"/><path d="m42.32 64a2.07 2.07 0 1 1 -2.07-2 2.07 2.07 0 0 1 2.07 2z" fill="#00f5bc"/><path d="m32.66 75.75v-7.87a1.17 1.17 0 0 1 .25-.72l2.26-2.82a1.17 1.17 0 0 0 .25-.72v-2.36" fill="none"/><path d="m36.8 75.75v-6.42a1.13 1.13 0 0 1 .34-.81l1-1" fill="none"/><path d="m40.94 68.85v6.9" fill="none"/><path d="m45.08 75.75v-17.94" fill="none"/><path d="m49.22 75.75v-15.18" fill="none"/><path d="m45.08 35.73v6.21" fill="none"/><path d="m49.22 35.73v7.06a1.13 1.13 0 0 1 -.42.88l-3.31 2.76a1.15 1.15 0 0 0 -.41.88v2.91" fill="none"/><path d="m68.54 75.75v-11.25a1.13 1.13 0 0 1 .34-.81l2.12-2.09a1.13 1.13 0 0 0 .34-.81v-2.29" fill="none"/><path d="m60.57 58.5h1.76a0 0 0 0 1 0 0v17.94a0 0 0 0 1 0 0h-1.76a1 1 0 0 1 -1-1v-15.94a1 1 0 0 1 1-1z" fill="#ffe500" transform="matrix(0 1 -1 0 128.42 6.53)"/><path d="m59.57 61.26h1.76a1 1 0 0 1 1 1v15.94a1 1 0 0 1 -1 1h-1.76a0 0 0 0 1 0 0v-17.94a0 0 0 0 1 0 0z" fill="#ffe500" transform="matrix(0 1 -1 0 131.18 9.29)"/><path d="m64.4 75.75v-4.14" fill="none"/><path d="m60.26 75.75v-4.14" fill="none"/></g></svg>

<svg id="Multicolor" xmlns="http://www.w3.org/2000/svg" viewBox="0 0 100 112"><defs><style>.cls-1{fill:#e8f4fa;}.cls-2{fill:#191816;opacity:0.15;}.cls-3{fill:#00dba8;}.cls-4,.cls-8{fill:#00f5bc;}.cls-5{fill:none;}.cls-5,.cls-6,.cls-7,.cls-8{stroke:#191816;stroke-linecap:round;stroke-linejoin:round;}.cls-6{fill:#00ad85;}.cls-7{fill:#ffe500;}</style></defs><title>52- silicon-chip</title><g id="Background"><circle class="cls-1" cx="50.34" cy="56" r="40"/></g><g id="Scene"><ellipse class="cls-2" cx="51.29" cy="83.76" rx="17.25" ry="1.72"/><rect class="cls-3" x="28.52" y="35.73" width="45.54" height="40.02" rx="2" ry="2"/><path class="cls-4" d="M28.52,61.68,54.46,35.73H30.82a2.3,2.3,0,0,0-2.3,2.3Z"/><rect class="cls-5" x="28.52" y="35.73" width="45.54" height="40.02" rx="2" ry="2"/><rect class="cls-6" x="51.98" y="42.63" width="16.56" height="16.56" rx="2" ry="2"/><line class="cls-5" x1="56.12" y1="42.63" x2="56.12" y2="39.87"/><line class="cls-5" x1="60.26" y1="42.63" x2="60.26" y2="39.87"/><line class="cls-5" x1="64.4" y1="42.63" x2="64.4" y2="39.87"/><line class="cls-5" x1="56.12" y1="61.95" x2="56.12" y2="59.19"/><line class="cls-5" x1="60.26" y1="61.95" x2="60.26" y2="59.19"/><line class="cls-5" x1="64.4" y1="61.95" x2="64.4" y2="59.19"/><line class="cls-5" x1="49.22" y1="50.91" x2="51.98" y2="50.91"/><line class="cls-5" x1="49.22" y1="46.77" x2="51.98" y2="46.77"/><line class="cls-5" x1="68.54" y1="46.77" x2="71.3" y2="46.77"/><line class="cls-5" x1="49.22" y1="55.05" x2="51.98" y2="55.05"/><line class="cls-5" x1="68.54" y1="50.91" x2="71.3" y2="50.91"/><line class="cls-5" x1="68.54" y1="55.05" x2="71.3" y2="55.05"/><rect class="cls-7" x="32.66" y="39.87" width="2.76" height="19.32" rx="1" ry="1"/><rect class="cls-7" x="39.56" y="39.87" width="2.76" height="19.32" rx="1" ry="1"/><rect class="cls-8" x="54.74" y="45.39" width="11.04" height="11.04" rx="1" ry="1"/><path class="cls-8" d="M42.32,64A2.07,2.07,0,1,1,40.25,62,2.07,2.07,0,0,1,42.32,64Z"/><path class="cls-5" d="M32.66,75.75V67.88a1.17,1.17,0,0,1,.25-.72l2.26-2.82a1.17,1.17,0,0,0,.25-.72V61.26"/><path class="cls-5" d="M36.8,75.75V69.33a1.13,1.13,0,0,1,.34-.81l1-1"/><line class="cls-5" x1="40.94" y1="68.85" x2="40.94" y2="75.75"/><line class="cls-5" x1="45.08" y1="75.75" x2="45.08" y2="57.81"/><line class="cls-5" x1="49.22" y1="75.75" x2="49.22" y2="60.57"/><line class="cls-5" x1="45.08" y1="35.73" x2="45.08" y2="41.94"/><path class="cls-5" d="M49.22,35.73v7.06a1.13,1.13,0,0,1-.42.88l-3.31,2.76a1.15,1.15,0,0,0-.41.88v2.91"/><path class="cls-5" d="M68.54,75.75V64.5a1.13,1.13,0,0,1,.34-.81L71,61.6a1.13,1.13,0,0,0,.34-.81V58.5"/><path class="cls-7" d="M60.57,58.5h1.76a0,0,0,0,1,0,0V76.44a0,0,0,0,1,0,0H60.57a1,1,0,0,1-1-1V59.5A1,1,0,0,1,60.57,58.5Z" transform="translate(128.42 6.53) rotate(90)"/><path class="cls-7" d="M59.57,61.26h1.76a1,1,0,0,1,1,1V78.2a1,1,0,0,1-1,1H59.57a0,0,0,0,1,0,0V61.26A0,0,0,0,1,59.57,61.26Z" transform="translate(131.18 9.29) rotate(90)"/><line class="cls-5" x1="64.4" y1="75.75" x2="64.4" y2="71.61"/><line class="cls-5" x1="60.26" y1="75.75" x2="60.26" y2="71.61"/></g></svg>
